archdroid-icon-theme/Archdroid-BlueGreyDark/status/scalable/non-starred.svg

<svg fill="#263238" height="24" viewBox="0 0 24 24" width="24" xmlns="http://www.w3.org/2000/svg"><path d="m22 9.24-7.19-.62-2.81-6.62-2.81 6.63-7.19.61 5.46 4.73-1.64 7.03 6.18-3.73 6.18 3.73-1.63-7.03zm-10 6.16-3.76 2.27 1-4.28-3.32-2.88 4.38-.38 1.7-4.03 1.71 4.04 4.38.38-3.32 2.88 1 4.28z" fill="#263238"/></svg>

<svg fill="#263238" height="24" viewBox="0 0 24 24" width="24" xmlns="http://www.w3.org/2000/svg"><path d="M22 9.24l-7.19-.62L12 2 9.19 8.63 2 9.24l5.46 4.73L5.82 21 12 17.27 18.18 21l-1.63-7.03L22 9.24zM12 15.4l-3.76 2.27 1-4.28-3.32-2.88 4.38-.38L12 6.1l1.71 4.04 4.38.38-3.32 2.88 1 4.28L12 15.4z"/></svg>
